X: 45
T: JIG: Humours of Kilclogher
T: Humours of Kiltyclogher
C: C: Trad.; S: Liam O'Flynn
C: Set Leaders: Alexey, Anton
Z: Anton Zille ed.; NfldWhistler at The Session
N: https://thesession.org/members/26966/sets/99621
R: Jig
M: 6/8
L: 1/8
Q: 3/8=116
K: Ador
B|:AGE ~G2E|c2E EFG|~D3 D2E|GED D2B|
AGE ~G2E|c2E EFG|~A3 BGE|~A3 A2B:||
|:c2B c2d|ecA ABc|BAG GA/B/c|dBG GAB|
c2B c2d|ecA ABc|BAG GAB|~A3 A2B:||

